src/img/favicon.svg

<svg width="50" height="50" viewBox="0 0 50 50" fill="none" xmlns="http://www.w3.org/2000/svg">
<rect x="10.8579" y="0.505104" width="40" height="40" transform="rotate(15 10.8579 0.505104)" fill="#012C12" fill-opacity="0.75"/>
<rect x="11.2114" y="1.11748" width="39" height="39" transform="rotate(15 11.2114 1.11748)" stroke="#DFD21D" stroke-opacity="0.9"/>
<path d="M12.9072 26H11.5632L9.8457 23.6233C9.80664 23.5671 9.75903 23.4792 9.70288 23.3596H9.68457V26H8.64087V20.6094H9.68457V23.1582H9.70288C9.73218 23.0898 9.78101 22.9995 9.84937 22.8872L11.49 20.6094H12.7461L10.7393 23.1838L12.9072 26ZM13.4822 26V20.6094H15.3169C15.8711 20.6094 16.3044 20.7205 16.6169 20.9426C16.9294 21.1624 17.0857 21.47 17.0857 21.8655C17.0857 22.1536 16.9941 22.4087 16.811 22.6309C16.6279 22.8506 16.3813 23.0081 16.0713 23.1033V23.1143C16.4521 23.1631 16.7549 23.3047 16.9795 23.5391C17.2041 23.7734 17.3164 24.064 17.3164 24.4106C17.3164 24.894 17.1431 25.2798 16.7964 25.5679C16.4497 25.856 15.9858 26 15.4048 26H13.4822ZM14.5259 21.4114V22.825H15.0935C15.3743 22.825 15.594 22.759 15.7527 22.6272C15.9114 22.4929 15.9907 22.3049 15.9907 22.0632C15.9907 21.6287 15.6807 21.4114 15.0605 21.4114H14.5259ZM14.5259 23.6306V25.198H15.2437C15.5513 25.198 15.7905 25.1272 15.9614 24.9856C16.1323 24.844 16.2178 24.6475 16.2178 24.396C16.2178 23.8857 15.8809 23.6306 15.207 23.6306H14.5259ZM22.8352 26H21.6963L21.2605 24.7109H19.2354L18.8105 26H17.6716L19.6675 20.6094H20.8723L22.8352 26ZM21.0005 23.8833L20.3413 21.9314C20.3145 21.8533 20.2864 21.7043 20.2571 21.4846H20.2314C20.2119 21.6482 20.1814 21.7947 20.1399 21.9241L19.4771 23.8833H21.0005ZM28.4126 27.4612H27.4861V26H23.9412V27.4612H23.022V25.1284H23.498C24.2256 23.8076 24.6296 22.3013 24.7102 20.6094H27.6619V25.1284H28.4126V27.4612ZM26.6145 25.1284V21.4956H25.5635C25.4902 22.6699 25.1631 23.8809 24.582 25.1284H26.6145ZM30.3755 24.0884V26H29.3318V20.6094H31.1116C32.425 20.6094 33.0818 21.1721 33.0818 22.2976C33.0818 22.842 32.8828 23.2803 32.4849 23.6123C32.0894 23.9443 31.5913 24.103 30.9907 24.0884H30.3755ZM30.3755 21.4407V23.2717H30.9065C31.6267 23.2717 31.9868 22.9604 31.9868 22.3379C31.9868 21.7397 31.634 21.4407 30.9285 21.4407H30.3755ZM38.5164 26H37.3774L36.9417 24.7109H34.9165L34.4917 26H33.3528L35.3486 20.6094H36.5535L38.5164 26ZM36.6816 23.8833L36.0225 21.9314C35.9956 21.8533 35.9675 21.7043 35.9382 21.4846H35.9126C35.8931 21.6482 35.8625 21.7947 35.821 21.9241L35.1582 23.8833H36.6816ZM42.8376 21.4773H41.2959V26H40.2485V21.4773H38.7104V20.6094H42.8376V21.4773Z" fill="white"/>
<path d="M27.248 31.62C27.328 31.62 27.368 31.688 27.368 31.824C27.184 32.136 26.972 32.42 26.732 32.676C26.492 32.924 26.228 33.048 25.94 33.048C25.78 33.048 25.612 32.992 25.436 32.88C25.268 32.768 25.184 32.56 25.184 32.256C25.184 32.168 25.192 32.076 25.208 31.98C25.224 31.876 25.252 31.764 25.292 31.644C25.356 31.484 25.432 31.312 25.52 31.128C25.608 30.944 25.752 30.692 25.952 30.372C26.008 30.284 26.04 30.216 26.048 30.168C26.064 30.12 26.072 30.08 26.072 30.048C26.072 29.952 26.028 29.904 25.94 29.904C25.868 29.904 25.76 29.944 25.616 30.024C25.48 30.104 25.308 30.244 25.1 30.444C24.9 30.636 24.66 30.908 24.38 31.26C24.108 31.612 23.792 32.132 23.432 32.82C23.376 32.924 23.312 32.98 23.24 32.988C23.176 32.996 23.084 33.004 22.964 33.012C22.884 33.02 22.808 33.024 22.736 33.024C22.664 33.032 22.604 33.056 22.556 33.096C22.844 32.512 23.12 31.936 23.384 31.368C23.648 30.792 23.92 30.244 24.2 29.724C24.36 29.436 24.496 29.236 24.608 29.124C24.72 29.004 24.868 28.944 25.052 28.944C25.116 28.944 25.184 28.956 25.256 28.98C25.328 28.996 25.4 29.004 25.472 29.004C25.52 29.004 25.556 29 25.58 28.992C25.468 29.056 25.32 29.216 25.136 29.472C24.96 29.72 24.78 30.008 24.596 30.336C24.412 30.664 24.248 30.972 24.104 31.26C24.256 31.076 24.416 30.892 24.584 30.708C24.752 30.524 24.936 30.348 25.136 30.18C25.328 30.012 25.556 29.84 25.82 29.664C26.092 29.48 26.356 29.328 26.612 29.208C26.868 29.088 27.072 29.028 27.224 29.028C27.28 29.028 27.32 29.032 27.344 29.04C27.344 29.04 27.3 29.12 27.212 29.28C27.124 29.432 27.012 29.636 26.876 29.892C26.748 30.14 26.616 30.408 26.48 30.696C26.344 30.976 26.22 31.248 26.108 31.512C26.004 31.768 25.936 31.984 25.904 32.16C25.88 32.264 25.868 32.36 25.868 32.448C25.868 32.576 25.892 32.66 25.94 32.7C25.988 32.74 26.04 32.76 26.096 32.76C26.28 32.76 26.472 32.64 26.672 32.4C26.88 32.16 27.072 31.9 27.248 31.62ZM29.5627 31.104C29.3547 31.456 29.1547 31.78 28.9627 32.076C28.7707 32.372 28.5707 32.608 28.3627 32.784C28.1627 32.952 27.9347 33.036 27.6787 33.036C27.4867 33.036 27.3147 32.98 27.1627 32.868C27.0107 32.748 26.9347 32.576 26.9347 32.352C26.9347 32.216 26.9667 32.068 27.0307 31.908C27.0867 31.748 27.1707 31.612 27.2827 31.5C27.4027 31.388 27.5467 31.34 27.7147 31.356C27.8267 31.364 27.9267 31.408 28.0147 31.488C27.8707 31.624 27.7587 31.784 27.6787 31.968C27.5987 32.152 27.5587 32.312 27.5587 32.448C27.5587 32.528 27.5747 32.604 27.6067 32.676C27.6467 32.74 27.7147 32.772 27.8107 32.772C27.9627 32.772 28.1187 32.688 28.2787 32.52C28.4467 32.344 28.6187 32.12 28.7947 31.848C28.9787 31.568 29.1587 31.28 29.3347 30.984C29.5667 30.608 29.7947 30.26 30.0187 29.94C30.2507 29.62 30.4667 29.372 30.6667 29.196C30.9227 28.98 31.1667 28.872 31.3987 28.872H31.4467C31.7667 28.872 31.8547 29.024 31.7107 29.328L31.2907 30.228C31.2187 30.372 31.1307 30.552 31.0267 30.768C30.9307 30.976 30.8347 31.192 30.7387 31.416C30.6507 31.632 30.5787 31.84 30.5227 32.04C30.4747 32.232 30.4587 32.388 30.4747 32.508C30.4987 32.628 30.5787 32.688 30.7147 32.688C30.9147 32.688 31.1107 32.584 31.3027 32.376C31.5027 32.168 31.6907 31.912 31.8667 31.608C32.0427 31.296 32.1987 30.988 32.3347 30.684C32.3667 30.684 32.3987 30.696 32.4307 30.72C32.4627 30.736 32.4787 30.76 32.4787 30.792C32.3347 31.152 32.1667 31.5 31.9747 31.836C31.7907 32.172 31.5747 32.448 31.3267 32.664C31.0867 32.88 30.8067 32.988 30.4867 32.988C30.1747 32.988 29.9787 32.88 29.8987 32.664C29.8267 32.44 29.8347 32.148 29.9227 31.788C30.0187 31.428 30.1667 31.036 30.3667 30.612C30.5667 30.18 30.7867 29.76 31.0267 29.352C31.1147 29.208 31.1387 29.136 31.0987 29.136C31.0667 29.136 31.0107 29.168 30.9307 29.232C30.8587 29.288 30.7907 29.348 30.7267 29.412C30.5747 29.556 30.4107 29.756 30.2347 30.012C30.0587 30.268 29.8347 30.632 29.5627 31.104ZM32.741 31.272C32.709 31.344 32.657 31.456 32.585 31.608C32.521 31.752 32.449 31.912 32.369 32.088C32.297 32.256 32.229 32.408 32.165 32.544C32.109 32.68 32.069 32.772 32.045 32.82C31.997 32.916 31.945 32.976 31.889 33C31.841 33.016 31.741 33.024 31.589 33.024H31.361C31.305 33.024 31.245 33.044 31.181 33.084C31.309 32.828 31.449 32.548 31.601 32.244C31.745 31.94 31.881 31.652 32.009 31.38C32.137 31.108 32.241 30.884 32.321 30.708C32.409 30.532 32.489 30.372 32.561 30.228C32.641 30.076 32.729 29.912 32.825 29.736C32.993 29.424 33.129 29.22 33.233 29.124C33.345 29.02 33.477 28.968 33.629 28.968C33.693 28.968 33.753 28.972 33.809 28.98C33.865 28.988 33.909 28.996 33.941 29.004C33.957 29.004 33.981 29.008 34.013 29.016C34.053 29.024 34.113 29.024 34.193 29.016C34.089 29.072 33.961 29.204 33.809 29.412C33.657 29.62 33.501 29.86 33.341 30.132C33.189 30.396 33.049 30.652 32.921 30.9C33.073 30.748 33.233 30.672 33.401 30.672C33.529 30.672 33.633 30.696 33.713 30.744C33.793 30.784 33.865 30.804 33.929 30.804H33.941C34.069 30.444 34.249 30.112 34.481 29.808C34.713 29.496 34.965 29.248 35.237 29.064C35.517 28.88 35.797 28.788 36.077 28.788C36.381 28.788 36.613 28.9 36.773 29.124C36.933 29.348 37.013 29.628 37.013 29.964C37.013 30.204 36.973 30.46 36.893 30.732C36.813 31.004 36.705 31.264 36.569 31.512C36.681 31.616 36.829 31.668 37.013 31.668C37.229 31.668 37.421 31.596 37.589 31.452C37.757 31.308 37.917 31.052 38.069 30.684C38.165 30.684 38.213 30.72 38.213 30.792C38.085 31.112 37.917 31.372 37.709 31.572C37.509 31.764 37.249 31.856 36.929 31.848C36.737 31.84 36.585 31.788 36.473 31.692C36.249 32.06 35.981 32.372 35.669 32.628C35.365 32.876 35.049 33 34.721 33C34.393 33 34.149 32.884 33.989 32.652C33.837 32.412 33.761 32.124 33.761 31.788C33.761 31.572 33.789 31.348 33.845 31.116C33.781 31.156 33.713 31.176 33.641 31.176C33.513 31.176 33.413 31.148 33.341 31.092C33.269 31.036 33.185 31.008 33.089 31.008C33.041 31.008 32.985 31.024 32.921 31.056C32.865 31.088 32.805 31.16 32.741 31.272ZM36.665 30.348C36.681 30.26 36.693 30.18 36.701 30.108C36.709 30.028 36.713 29.952 36.713 29.88C36.713 29.672 36.673 29.504 36.593 29.376C36.521 29.24 36.405 29.172 36.245 29.172C35.997 29.172 35.737 29.32 35.465 29.616C35.201 29.912 34.969 30.296 34.769 30.768C34.665 31.016 34.585 31.252 34.529 31.476C34.473 31.692 34.445 31.892 34.445 32.076C34.445 32.276 34.481 32.436 34.553 32.556C34.625 32.676 34.737 32.736 34.889 32.736C35.073 32.736 35.257 32.66 35.441 32.508C35.625 32.348 35.793 32.168 35.945 31.968C36.097 31.768 36.205 31.596 36.269 31.452C36.141 31.22 36.065 31.048 36.041 30.936C36.025 30.816 36.017 30.728 36.017 30.672C36.017 30.52 36.057 30.404 36.137 30.324C36.217 30.244 36.297 30.204 36.377 30.204C36.489 30.204 36.585 30.252 36.665 30.348ZM39.0955 33.048C38.6555 33.048 38.3275 32.932 38.1115 32.7C37.9035 32.468 37.7995 32.156 37.7995 31.764C37.7995 31.58 37.8355 31.368 37.9075 31.128C37.9795 30.888 38.0755 30.644 38.1955 30.396C38.3155 30.148 38.4475 29.928 38.5915 29.736C38.8235 29.424 39.0795 29.184 39.3595 29.016C39.6395 28.84 39.9235 28.752 40.2115 28.752C40.5155 28.752 40.7315 28.82 40.8595 28.956C40.9955 29.084 41.0635 29.236 41.0635 29.412C41.0635 29.58 41.0235 29.732 40.9435 29.868C40.8635 29.996 40.7715 30.1 40.6675 30.18C40.5715 30.26 40.4875 30.3 40.4155 30.3C40.3515 30.3 40.2955 30.276 40.2475 30.228C40.3115 30.148 40.3795 30.052 40.4515 29.94C40.5235 29.828 40.5755 29.72 40.6075 29.616C40.6395 29.52 40.6555 29.424 40.6555 29.328C40.6555 29.12 40.5595 29.016 40.3675 29.016C40.1355 29.016 39.9075 29.112 39.6835 29.304C39.4675 29.496 39.2675 29.744 39.0835 30.048C38.9075 30.344 38.7635 30.66 38.6515 30.996C38.5475 31.324 38.4955 31.628 38.4955 31.908C38.4955 32.164 38.5475 32.376 38.6515 32.544C38.7635 32.712 38.9435 32.796 39.1915 32.796C39.5195 32.796 39.8075 32.692 40.0555 32.484C40.3035 32.268 40.5235 32 40.7155 31.68C40.9075 31.352 41.0755 31.02 41.2195 30.684C41.2515 30.684 41.2835 30.692 41.3155 30.708C41.3475 30.716 41.3635 30.744 41.3635 30.792C41.2035 31.192 41.0155 31.564 40.7995 31.908C40.5835 32.252 40.3355 32.528 40.0555 32.736C39.7835 32.944 39.4635 33.048 39.0955 33.048Z" fill="white"/>
</svg>

<svg width="50" height="50" fill="none" xmlns="http://www.w3.org/2000/svg"><path fill="#012C12" fill-opacity=".75" d="m10.858.505 38.637 10.353-10.353 38.637L.505 39.142z"/><path stroke="#DFD21D" stroke-opacity=".9" d="M11.211 1.117 48.882 11.21 38.788 48.882 1.118 38.788z"/><path d="M12.907 26h-1.344l-1.717-2.377a1.93 1.93 0 0 1-.143-.263h-.018V26H8.64v-5.39h1.044v2.548h.018c.03-.068.078-.159.146-.27l1.641-2.279h1.256l-2.007 2.575L12.907 26Zm.575 0v-5.39h1.835c.554 0 .987.11 1.3.333.312.22.469.527.469.922 0 .289-.092.544-.275.766-.183.22-.43.377-.74.472v.011c.381.05.684.19.909.425.224.234.336.525.336.872 0 .483-.173.869-.52 1.157-.346.288-.81.432-1.391.432h-1.923Zm1.044-4.589v1.414h.568c.28 0 .5-.066.659-.198.158-.134.238-.322.238-.564 0-.434-.31-.652-.93-.652h-.535Zm0 2.22v1.567h.718c.307 0 .546-.07.717-.212.171-.142.257-.338.257-.59 0-.51-.337-.765-1.011-.765h-.681ZM22.836 26h-1.14l-.436-1.29h-2.025L18.811 26h-1.14l1.997-5.39h1.204L22.835 26ZM21 23.883l-.66-1.952a2.75 2.75 0 0 1-.084-.446h-.026c-.02.163-.05.31-.091.44l-.663 1.958H21Zm7.412 3.578h-.927V26h-3.545v1.461h-.919v-2.333h.476c.728-1.32 1.132-2.827 1.212-4.519h2.952v4.52h.75v2.332Zm-1.799-2.333v-3.632h-1.05c-.074 1.174-.4 2.385-.982 3.632h2.032Zm3.761-1.04V26h-1.043v-5.39h1.78c1.313 0 1.97.562 1.97 1.688 0 .544-.2.982-.597 1.314-.396.332-.894.491-1.494.476h-.616Zm0-2.647v1.83h.532c.72 0 1.08-.31 1.08-.933 0-.598-.353-.897-1.058-.897h-.553ZM38.517 26h-1.139l-.435-1.29h-2.026L34.492 26h-1.14l1.997-5.39h1.205L38.516 26Zm-1.834-2.117-.66-1.952a2.736 2.736 0 0 1-.084-.446h-.025c-.02.163-.05.31-.092.44l-.663 1.958h1.524Zm6.156-2.406h-1.542V26h-1.047v-4.523H38.71v-.868h4.128v.868ZM27.248 31.62c.08 0 .12.068.12.204a4.822 4.822 0 0 1-.636.852c-.24.248-.504.372-.792.372a.944.944 0 0 1-.504-.168c-.168-.112-.252-.32-.252-.624a2.06 2.06 0 0 1 .108-.612c.064-.16.14-.332.228-.516s.232-.436.432-.756a.624.624 0 0 0 .096-.204.395.395 0 0 0 .024-.12c0-.096-.044-.144-.132-.144-.072 0-.18.04-.324.12a3.04 3.04 0 0 0-.516.42c-.2.192-.44.464-.72.816-.272.352-.588.872-.948 1.56-.056.104-.12.16-.192.168a5.154 5.154 0 0 1-.276.024c-.08.008-.156.012-.228.012a.331.331 0 0 0-.18.072c.288-.584.564-1.16.828-1.728.264-.576.536-1.124.816-1.644.16-.288.296-.488.408-.6.112-.12.26-.18.444-.18.064 0 .132.012.204.036a.993.993 0 0 0 .216.024.364.364 0 0 0 .108-.012c-.112.064-.26.224-.444.48a9.695 9.695 0 0 0-.54.864c-.184.328-.348.636-.492.924.152-.184.312-.368.48-.552a5.78 5.78 0 0 1 .552-.528c.192-.168.42-.34.684-.516.272-.184.536-.336.792-.456s.46-.18.612-.18c.056 0 .096.004.12.012l-.132.24c-.088.152-.2.356-.336.612-.128.248-.26.516-.396.804-.136.28-.26.552-.372.816a3.413 3.413 0 0 0-.204.648c-.024.104-.036.2-.036.288 0 .128.024.212.072.252.048.04.1.06.156.06.184 0 .376-.12.576-.36.208-.24.4-.5.576-.78Zm2.315-.516c-.208.352-.408.676-.6.972a3.2 3.2 0 0 1-.6.708c-.2.168-.428.252-.684.252a.848.848 0 0 1-.516-.168c-.152-.12-.228-.292-.228-.516 0-.136.032-.284.096-.444.056-.16.14-.296.252-.408a.532.532 0 0 1 .432-.144.488.488 0 0 1 .3.132 1.446 1.446 0 0 0-.336.48c-.08.184-.12.344-.12.48 0 .08.016.156.048.228.04.064.108.096.204.096.152 0 .308-.084.468-.252.168-.176.34-.4.516-.672.184-.28.364-.568.54-.864.232-.376.46-.724.684-1.044.232-.32.448-.568.648-.744.256-.216.5-.324.732-.324h.048c.32 0 .408.152.264.456l-.42.9c-.072.144-.16.324-.264.54a25.79 25.79 0 0 0-.288.648c-.088.216-.16.424-.216.624a1.3 1.3 0 0 0-.048.468c.024.12.104.18.24.18.2 0 .396-.104.588-.312.2-.208.388-.464.564-.768.176-.312.332-.62.468-.924a.16.16 0 0 1 .096.036c.032.016.048.04.048.072-.144.36-.312.708-.504 1.044-.184.336-.4.612-.648.828-.24.216-.52.324-.84.324-.312 0-.508-.108-.588-.324-.072-.224-.064-.516.024-.876.096-.36.244-.752.444-1.176.2-.432.42-.852.66-1.26.088-.144.112-.216.072-.216-.032 0-.088.032-.168.096-.072.056-.14.116-.204.18a3.799 3.799 0 0 0-.492.6c-.176.256-.4.62-.672 1.092Zm3.178.168c-.032.072-.084.184-.156.336l-.216.48c-.072.168-.14.32-.204.456a4.974 4.974 0 0 1-.12.276c-.048.096-.1.156-.156.18a1.17 1.17 0 0 1-.3.024h-.228a.343.343 0 0 0-.18.06l.42-.84.408-.864c.128-.272.232-.496.312-.672l.24-.48c.08-.152.168-.316.264-.492.168-.312.304-.516.408-.612a.563.563 0 0 1 .396-.156 1.274 1.274 0 0 1 .312.036.66.66 0 0 0 .252.012c-.104.056-.232.188-.384.396a8.708 8.708 0 0 0-.468.72c-.152.264-.292.52-.42.768.152-.152.312-.228.48-.228a.6.6 0 0 1 .312.072c.08.04.152.06.216.06h.012c.128-.36.308-.692.54-.996a3.16 3.16 0 0 1 .756-.744c.28-.184.56-.276.84-.276.304 0 .536.112.696.336.16.224.24.504.24.84 0 .24-.04.496-.12.768-.08.272-.188.532-.324.78.112.104.26.156.444.156a.86.86 0 0 0 .576-.216c.168-.144.328-.4.48-.768.096 0 .144.036.144.108-.128.32-.296.58-.504.78-.2.192-.46.284-.78.276a.726.726 0 0 1-.456-.156c-.224.368-.492.68-.804.936-.304.248-.62.372-.948.372-.328 0-.572-.116-.732-.348a1.581 1.581 0 0 1-.228-.864c0-.216.028-.44.084-.672a.379.379 0 0 1-.204.06.478.478 0 0 1-.3-.084.399.399 0 0 0-.252-.084.387.387 0 0 0-.168.048.575.575 0 0 0-.18.216Zm3.924-.924a2.296 2.296 0 0 0 .048-.468.94.94 0 0 0-.12-.504.365.365 0 0 0-.348-.204c-.248 0-.508.148-.78.444-.264.296-.496.68-.696 1.152a4.934 4.934 0 0 0-.24.708 2.402 2.402 0 0 0-.084.6c0 .2.036.36.108.48.072.12.184.18.336.18.184 0 .368-.076.552-.228.184-.16.352-.34.504-.54.152-.2.26-.372.324-.516-.128-.232-.204-.404-.228-.516a2.234 2.234 0 0 1-.024-.264c0-.152.04-.268.12-.348.08-.08.16-.12.24-.12.112 0 .208.048.288.144Zm2.43 2.7c-.44 0-.767-.116-.983-.348-.209-.232-.313-.544-.313-.936 0-.184.037-.396.108-.636.073-.24.169-.484.289-.732.12-.248.252-.468.396-.66a2.7 2.7 0 0 1 .767-.72c.28-.176.564-.264.852-.264.305 0 .52.068.648.204.136.128.204.28.204.456 0 .168-.04.32-.12.456a1.17 1.17 0 0 1-.276.312c-.096.08-.18.12-.252.12a.23.23 0 0 1-.167-.072c.064-.08.132-.176.204-.288.072-.112.123-.22.156-.324a.906.906 0 0 0 .048-.288c0-.208-.096-.312-.288-.312-.233 0-.46.096-.684.288-.216.192-.416.44-.6.744-.177.296-.32.612-.433.948a3.032 3.032 0 0 0-.156.912c0 .256.053.468.157.636.111.168.291.252.54.252.328 0 .615-.104.864-.312.248-.216.468-.484.66-.804.191-.328.36-.66.503-.996.032 0 .064.008.096.024.032.008.049.036.049.084-.16.4-.348.772-.564 1.116-.216.344-.464.62-.744.828a1.535 1.535 0 0 1-.96.312Z" fill="#fff"/></svg>
